images/brand.svg

<svg width="283" height="283" viewBox="0 0 283 283" fill="none" xmlns="http://www.w3.org/2000/svg">
    <path d="M0 39C0 17.4609 17.4609 0 39 0H244C265.539 0 283 17.4609 283 39V244C283 265.539 265.539 283 244 283H39C17.4609 283 0 265.539 0 244V39Z" fill="black"></path>
    <path d="M121.215 210.72C119.348 211.28 116.361 211.84 112.255 212.4C108.335 212.96 104.228 213.24 99.9347 213.24C95.828 213.24 92.0947 212.96 88.7347 212.4C85.5614 211.84 82.8547 210.72 80.6147 209.04C78.3747 207.36 76.6014 205.12 75.2947 202.32C74.1747 199.333 73.6147 195.507 73.6147 190.84V106.84C73.6147 102.547 74.3614 98.9067 75.8547 95.92C77.5347 92.7467 79.868 89.9467 82.8547 87.52C85.8414 85.0933 89.4814 82.9467 93.7747 81.08C98.2547 79.0267 103.015 77.2533 108.055 75.76C113.095 74.2667 118.321 73.1467 123.735 72.4C129.148 71.4667 134.561 71 139.975 71C148.935 71 156.028 72.7733 161.255 76.32C166.481 79.68 169.095 85.28 169.095 93.12C169.095 95.7333 168.721 98.3467 167.975 100.96C167.228 103.387 166.295 105.627 165.175 107.68C161.255 107.68 157.241 107.867 153.135 108.24C149.028 108.613 145.015 109.173 141.095 109.92C137.175 110.667 133.441 111.507 129.895 112.44C126.535 113.187 123.641 114.12 121.215 115.24V210.72ZM166.387 188.32C166.387 180.48 168.813 173.947 173.667 168.72C178.52 163.493 185.147 160.88 193.547 160.88C201.947 160.88 208.573 163.493 213.427 168.72C218.28 173.947 220.707 180.48 220.707 188.32C220.707 196.16 218.28 202.693 213.427 207.92C208.573 213.147 201.947 215.76 193.547 215.76C185.147 215.76 178.52 213.147 173.667 207.92C168.813 202.693 166.387 196.16 166.387 188.32Z" fill="white"></path>
</svg>

<svg xmlns="http://www.w3.org/2000/svg" width="283" height="283" fill="none"><path fill="#000" d="M0 39C0 17.46 17.46 0 39 0h205c21.539 0 39 17.46 39 39v205c0 21.539-17.461 39-39 39H39c-21.54 0-39-17.461-39-39z"/><path fill="#fff" d="M121.215 210.72c-1.867.56-4.854 1.12-8.96 1.68-3.92.56-8.027.84-12.32.84-4.107 0-7.84-.28-11.2-.84-3.174-.56-5.88-1.68-8.12-3.36-2.24-1.68-4.014-3.92-5.32-6.72-1.12-2.987-1.68-6.813-1.68-11.48v-84c0-4.293.746-7.933 2.24-10.92 1.68-3.173 4.013-5.973 7-8.4 2.986-2.427 6.626-4.573 10.92-6.44 4.48-2.053 9.24-3.827 14.28-5.32a106.176 106.176 0 0 1 15.68-3.36 95.412 95.412 0 0 1 16.24-1.4c8.96 0 16.053 1.773 21.28 5.32 5.226 3.36 7.84 8.96 7.84 16.8 0 2.613-.374 5.227-1.12 7.84-.747 2.427-1.68 4.667-2.8 6.72-3.92 0-7.934.187-12.04.56-4.107.373-8.12.933-12.04 1.68-3.92.747-7.654 1.587-11.2 2.52-3.36.747-6.254 1.68-8.68 2.8zm45.172-22.4c0-7.84 2.426-14.373 7.28-19.6 4.853-5.227 11.48-7.84 19.88-7.84 8.4 0 15.026 2.613 19.88 7.84 4.853 5.227 7.28 11.76 7.28 19.6 0 7.84-2.427 14.373-7.28 19.6-4.854 5.227-11.48 7.84-19.88 7.84-8.4 0-15.027-2.613-19.88-7.84-4.854-5.227-7.28-11.76-7.28-19.6"/></svg>
